X:1
T:Finale.(2 voices). TWC.291, La
T:Finale.(2 voices). TWC.291, La
T:Finale
C:Finale
%%score 1 2
L:1/8
Q:1/4=100
M:2/4
K:G
V:1 treble 
V:2 bass 
V:1
"^Quadrilles   Finale 1st. Set" d/B/d/B/ GG | BG D2 | dd/e/ cc/d/ | BB/c/ AB/c/ | d/B/d/B/ GG | %5
 B>G D2 | d/e/f/g/ f/e/d/c/ | BA G2!fine! :| F/A/d/A/ G/B/d/B/ | F/A/d/A/ G/B/d/B/ | %10
 A/B/^c/d/ c/B/A/G/ | FE D2 | a/f/a/f/ dd | fd A2 | a/b/^c'/d'/ c'/b/a/g/ | fe d2 || c/A/c/A/ cc | %17
 B/c/d/B/ GA/B/ | c/A/c/A/ cc | B/c/d/B/ G2 | _bbag | f/g/a/f/ d/e/f/d/ | _bbag | %23
"^D.C. Senza replica" f/g/a/f/ d2 |] %24
V:2
 G,,2 G,2 | G,,2 G,2 | G,,D,E,F, | G,2 D,2 | G,,2 G,2 | G,,2 G,2 | G,,C, B,,C, | D,D,, G,,2 :| %8
 D,2 G,2 | D,2 G,2 | D,E,F,G, | A,A,, D,2 | D,2 D2 | D,2 D2 | D,G,F,G, | A,A,, D,2 || D,2 E,F, | %17
 G,2 E,2 | D,2 E,F, | G,2 G,2 | G,,G,, D,2 | D,2 F,,2 | G,,G,, D,G, | A,A,, D,2 |] %24

